bs-navigator/img/icons/advant-04.svg

<svg width="41" height="41" viewBox="0 0 41 41" fill="none" xmlns="http://www.w3.org/2000/svg">
<path d="M18.2223 6.87524C15.9723 13.1252 12.5348 22.8752 12.5348 23.1252C12.5348 23.3127 13.7848 23.8127 15.3473 24.1877L18.1598 24.8752V30.1877V35.5002H20.2848H22.4723L25.5973 27.3752C27.3473 22.8752 28.7848 19.1252 28.7848 19.0002C28.7848 18.8752 27.5348 18.4377 25.9723 18.0002L23.1598 17.1877V11.3752V5.50024H20.9723C19.2223 5.50024 18.6598 5.81274 18.2223 6.87524ZM23.1598 19.8752L25.5973 20.5627L24.3473 23.8127C23.5973 25.6252 22.5348 28.3127 21.9098 29.8752L20.7223 32.6877V27.8752L20.6598 23.0627L18.0973 22.3752C16.5973 21.9377 15.7223 21.3752 15.9098 20.9377C16.0348 20.5002 17.0973 17.5002 18.2848 14.2502L20.3473 8.31274L20.5348 13.7502L20.7223 19.1877L23.1598 19.8752Z" fill="#698157"/>
<path d="M7.65979 7.56269C7.09729 8.18769 7.47229 8.87519 9.34729 10.7502C11.2848 12.6252 11.8473 12.8752 12.4098 12.1877C12.9723 11.5627 12.5973 10.8752 10.7223 9.00019C8.78479 7.12519 8.22229 6.87519 7.65979 7.56269Z" fill="#698157"/>
<path d="M30.4098 9.18781C28.5348 11.1253 28.2848 11.6878 28.9723 12.2503C29.5973 12.8128 30.2848 12.4378 32.1598 10.5628C34.0348 8.62531 34.2848 8.06281 33.5973 7.50031C32.9723 6.93781 32.2848 7.31281 30.4098 9.18781Z" fill="#698157"/>
<path d="M9.15978 30.4378C7.28478 32.3753 7.03478 32.9378 7.72228 33.5003C8.34728 34.0628 9.03478 33.6878 10.9098 31.8128C12.7848 29.8753 13.0348 29.3128 12.3473 28.7503C11.7223 28.1878 11.0348 28.5628 9.15978 30.4378Z" fill="#698157"/>
<path d="M28.9098 28.8127C28.3473 29.4377 28.7223 30.1252 30.5973 32.0002C32.5348 33.8752 33.0973 34.1252 33.6598 33.4377C34.2223 32.8127 33.8473 32.1252 31.9723 30.2502C30.0348 28.3752 29.4723 28.1252 28.9098 28.8127Z" fill="#698157"/>
</svg>

<svg width="41" height="41" fill="none" xmlns="http://www.w3.org/2000/svg"><path d="M18.222 6.875c-2.25 6.25-5.687 16-5.687 16.25 0 .188 1.25.688 2.812 1.063l2.813.687V35.5h4.312l3.125-8.125c1.75-4.5 3.188-8.25 3.188-8.375s-1.25-.562-2.813-1l-2.812-.812V5.5h-2.188c-1.75 0-2.312.313-2.75 1.375zm4.938 13l2.437.688-1.25 3.25c-.75 1.812-1.812 4.5-2.437 6.062l-1.188 2.813v-4.813l-.062-4.812-2.563-.688c-1.5-.437-2.375-1-2.187-1.437.125-.438 1.187-3.438 2.375-6.688l2.062-5.937.188 5.437.187 5.438 2.438.687zM7.66 7.563c-.563.625-.188 1.312 1.687 3.187 1.938 1.875 2.5 2.125 3.063 1.438.562-.625.187-1.313-1.688-3.188-1.937-1.875-2.5-2.125-3.062-1.437zm22.75 1.625c-1.875 1.937-2.125 2.5-1.438 3.062.625.563 1.313.188 3.188-1.687 1.875-1.938 2.125-2.5 1.437-3.063-.625-.562-1.312-.187-3.187 1.688zM9.16 30.438c-1.875 1.937-2.125 2.5-1.438 3.062.625.563 1.313.188 3.188-1.687 1.875-1.938 2.125-2.5 1.437-3.063-.625-.562-1.312-.187-3.187 1.688zm19.75-1.625c-.563.625-.188 1.312 1.687 3.187 1.938 1.875 2.5 2.125 3.063 1.438.562-.625.187-1.313-1.688-3.188-1.937-1.875-2.5-2.125-3.062-1.437z" fill="#698157"/></svg>
